X:1
T:Welcome To Our City
T:March & Two-Step with Song Trio
T:By Herman Carle & Cecil Mack
T:Copyright 1908 by Gotham Attucks Music Co.
T:Copyright 1908 by Gotham Attucks Music Co.
T:Copyright 1908 by Gotham Attucks Music Co.
T:Copyright 1908 by Gotham Attucks Music Co.
Z:Copyright 1908 by Gotham Attucks Music Co.
%%score { ( 1 3 ) | ( 2 4 5 ) }
L:1/8
Q:1/4=80
M:2/4
K:G
V:1 treble nm="Piano" snm="Pno."
V:3 treble 
V:2 bass 
V:4 bass 
V:5 bass 
V:1
!f! [GB]/[GB][GB]/ [G_Be][GBe] | [DFA]/[DFA][DFA]/ [DGd][DGd] | G/_BG/ (B/G/B) | %3
w: |||
 [=CFA]2 [DFAd] z |:!f! B(B/^A/ B)(B/A/ | B)(B/^A/ B/)!^!dB/ | A(A/^G/ A)(A/G/ | A/)BA/ EF/G/ | %8
w: |||||
 A(A/^G/ A)(A/G/ | A)(A/^G/ A/)BA/ | D2 [^CE]2 | [=CF]/[CA][CF]/ [CE][CD] | B(B/^A/ B)(B/A/ | %13
w: |||||
 B)(B/^A/ B/)!^!dB/ | A(A/^G/ A)(A/G/ | A/)BA/ E(B/A/ | G)(B/A/ G)(B/A/ | G/)AB/ d[D^GB] | (A4 |1 %19
w: ||||||
 G)(^C/D/ E/F/G/A/) :|2 [B,DG]d/d/ [Gd][G^c^d] |:!mf!!mf! [F=ce]/[Fcf][Fce]/- [Fce]/[Fc_e]/[Fcd] | %22
w: |||
 [Fce]/[Fcf][Fce]/- [Fce]/[Fc_e]/[Fcd] | [GB^d]<[GBe] [G^A]/[GB]G/- | G[B,G][CFA][D^GB] | %25
w: |||
 [^C=GA]/[CGB][CGA]/- [CGA]/G/[CE] | [=CFA]/[DFB][CFA]/- [CFA]/F/[CD] | ^C<D E/G[DGB]/- | %28
w: |||
 [DGB]d/d/ [Gd][G^c^d] | [F=ce]/[Fcf][Fce]/- [Fce]/[Fc_e]/[Fcd] | %30
w: ||
 [Fce]/[Fcf][Fce]/- [Fce]/[Fc_e]/[Fcd] | [GB^d]<[GBe] [G^A]/[GB]G/- | G[B,G][CFA][D^GB] | %33
w: |||
 [^C=GA]/[CGB][CGA]/- [CGA]/G/[CE] | [=CFA]/[DFB][CFA]/- [CFA]/F/[CD] | %35
w: ||
 [DG][G^A]/[GB]/- [GB]/[GA]/[GB] |1 Gd/d/ [Gd][G^c^d] :|2 G!<(!(^C/D/ E/F/G/A/)!<)! || %38
w: |||
!ff! B(B/^A/ B)(B/A/ | B)(B/^A/ B/)!^!dB/ | A(A/^G/ A)(A/G/ | A/)BA/ EF/G/ | A(A/^G/ A)(A/G/ | %43
w: |||||
 A)(A/^G/ A/)BA/ | D2 [^CE]2 | [=CF]/[CA][CF]/ [CE][CD] | B(B/^A/ B)(B/A/ | B)(B/^A/ B/)!^!dB/ | %48
w: |||||
 A(A/^G/ A)(A/G/ | A/)BA/ E(B/A/ | G)(B/A/ G)(B/A/ | G/)AB/ d[D^GB] | (A4 | %53
w: |||||
 [B,DG]) z !^![GBdg] z ||[K:C]!ff! [FB]/[Fd][FB]/ [FA][Fd] | [F_A]/[Fd][FA]/ [FG] z | z4 | %57
w: ||||
[I:staff +1] G,[I:staff -1] z !^![GBdg] z ||!pp! [Ge][Gd] [Gc]<[Gce] | [Gd]/[Gc][Gce]/- [Gce]2 | %60
w: |Hel- lo, Bill how|do you do _|
 [Ec][EA] [EG]<[EGc] | [EA]/[EG]E/- E2 | [FG][FA] [F^A]<[FB] | [F^A]/[FB][F=A]/- [FA][FG] | %64
w: might- y glad that|I met you _|Wish you luck here|take the keys _ The|
 [GA][Gc] [^FB][FA] | [=FB]/[Fd][FB]/ [FA][FG] | [Ge][Gd] [Gc]<[Ge] | [Gd]/[Gc][Ge]/- [Ge]2 | %68
w: Town is yours to|do as you please in|Have a smile for|Auld Lang Syne _|
 [GA]_B A<G | FG/[FA]/- [FA]2 | [CFA][DFB][EAc][^Fcd] | [Ge]<c [FA][FG] | c4- | c z [cegc'] z |: %74
w: Hope your health's as|good as mine _|Wel- come to our|Cit- y an- y|time.|_|
!f!!f!{/^d} [ce]2{/d} [ce]2 |{/^d} [ce]2- [ce]d/e/ | [cf][ce]^d[ce] | [Ac] z z2 | c2 c2 | %79
w: |||||
 c2- c=B/c/ | [F_d][_Ec] [D=B][Ec] | [C_A][CA][CG][CA] | [^Dc] [DB]2 [DA] | [^Dc] [DB]2 [DA] | %84
w: |||||
 [E^Ge]e/e/ ee | [Bfg] z z2 ||!ff! [ge'][gd'] [gc']<[gc'e'] | [gd']/[gc'][gc'e']/- [gc'e']2 | %88
w: ||||
 [ec'][ea] [eg]<[egc'] | [ea]/[eg][ce]/- [ce]2 | [fg][fa] [f^a]<[fb] | [f^a]/[fb][f=a]/- [fa][fg] | %92
w: ||||
 [ea][cc'] [B^fb][Afa] | [B=fb]/[dfd'][Bfb]/ [Afa][Bfg] | [ge'][gd'] [gc']<[gc'e'] | %95
w: |||
 [gd']/[gc'][ge']/- [ge']2 | [ga][g_b] a<g | f[eg]/[fa]/- [fa]2 | %98
w: |||
"^8va ad lib" [CFA][DFB][EAc][^Fcd] | [Ge]<[Gc] [FA][FG] | c4- | c z [cegc'] z :| %102
w: ||||
V:2
 D/DD/ ^CC | =C/CC/ B,B, | [_E,,_E,]2 [E,,E,][E,,E,] | [D,,D,]2 [D,,D,] z |: %4
 !^!G,[B,D] !^!F,[A,B,^D] | !^!E,[^G,B,=D] !^!D,[E,=G,B,] | ^C,[E,G,A,] A,,[G,A,^C] | %7
 E,[G,A,^C] A,,[G,A,C] | D,[F,A,=C] E,[G,A,^C] | F,[A,=CD] D,[F,A,C] | B,,B, _B,,_B, | %11
 A,,D, D,,[D,F,A,] | !^!G,[B,D] !^!F,[A,B,^D] | !^!E,[^G,B,=D] !^!D,[E,=G,B,] | %14
 ^C,[E,G,A,] A,,[G,A,^C] | E,[G,A,^C] A,, z | E,[G,C] _E,[G,C] | D,[G,B,] E,,E, | A,,E, D,,D, |1 %19
 [G,,G,] z z2 :|2 [G,,G,] z [B,,B,][_B,,_B,] |: [A,,A,][D,F,C] D,,[D,F,C] | A,,[D,F,C] D,,[D,F,C] | %23
 G,,[D,G,B,] D,,[D,G,B,] | G,,D,^D,E, | A,,A, G,,G, | F,,F, D,,D, | G,,[D,G,B,] B,,[D,G,B,] | %28
 G,,[D,G,B,] [B,,B,][_B,,_B,] | [A,,A,][D,F,C] D,,[D,F,C] | A,,[D,F,C] D,,[D,F,C] | %31
 G,,[D,G,B,] D,,[D,G,B,] | G,,D,^D,E, | A,,A, G,,G, | F,,F, D,,D, | B,^C/D/- D/C/D |1 %36
 B, z [B,,B,][_B,,_B,] :|2 B, z z2 || !^!G,[B,D] !^!F,[A,B,^D] | !^!E,[^G,B,=D] !^!D,[E,=G,B,] | %40
 ^C,[E,G,A,] A,,[G,A,^C] | E,[G,A,^C] A,,[G,A,C] | D,[F,A,=C] E,[G,A,^C] | F,[A,=CD] D,[F,A,C] | %44
 B,,B, _B,,_B, | A,,D, D,,[D,F,A,] | !^!G,[B,D] !^!F,[A,B,^D] | !^!E,[^G,B,=D] !^!D,[E,=G,B,] | %48
 ^C,[E,G,A,] A,,[G,A,^C] | E,[G,A,^C] A,, z | E,[G,C] _E,[G,C] | D,[G,B,] E,,E, | A,,E, D,,D, | %53
 [G,,G,] z !^![G,,G,] z ||[K:C] D/DD/ CC | C/CC/ B, z | G,,/A,,/^A,,/B,,/- B,,/A,,/B,, | %57
 G,, z !^![G,,G,] z || C,[E,G,C] G,,[E,G,C] | C,[E,G,C] G,,[E,G,C] | C,[E,G,C] G,,[E,G,C] | %61
 C,[E,G,C] G,,[E,G,C] | D,[F,G,B,] G,,[F,G,B,] | D,[F,G,B,] G,,[F,G,B,] | E,[G,C] _E,[^F,A,C] | %65
 D,[=F,G,B,] G,,[F,G,B,] | C,[E,G,C] G,,[E,G,C] | C,[E,G,C] G,,[E,G,C] | ^C,[G,A,] A,,[G,A,^C] | %69
 D,[F,A,D] D,[F,A,D] | F,^G,A,_A, | G,2 G,,[F,G,B,] | C,>A, G,E, | C, z [C,,C,] z |: %74
 [A,,E,A,][A,,E,A,] [A,,E,A,][A,,E,A,] | [A,,E,A,][A,,E,A,] [A,,E,A,][A,,E,A,] | %76
 [A,,E,A,][A,,E,A,] [A,,E,A,][A,,E,A,] | [A,,E,A,]C,/D,/ E,/D,/C, | _A,,_E, _E,,E, | %79
 _A,,_E, _E,, z | _A,,_E, A,,E, | _A,,_E, _E,,E, | [^F,,^F,] [F,,F,]2 [F,,F,] | %83
 [=F,,=F,] [F,,F,]2 [F,,F,] | [E,,E,] z z2 | [G,,G,] z !^![G,,,G,,] z || C,[E,G,C] G,,[E,G,C] | %87
 C,[E,G,C] G,,[E,G,C] | C,[E,G,C] G,,[E,G,C] | C,[E,G,C] G,,[E,G,C] | D,[F,G,B,] G,,[F,G,B,] | %91
 D,[F,G,B,] G,,[F,G,B,] | E,[G,C] _E,[^F,A,C] | D,[F,G,B,] G,,[F,G,B,] | C,[E,G,C] G,,[E,G,C] | %95
 C,[E,G,C] G,,[E,G,C] | ^C,[G,A,] A,,[G,A,^C] | D,[F,A,D] D,[F,A,D] | %98
 [F,,F,][^G,,^G,][A,,A,][_A,,_A,] | [G,,G,]2 G,,[F,G,B,] | C,>A, G,E, | C, z [C,,C,] z :| %102
V:3
 x4 | x4 | ^C2 [CG][CG] | x4 |: x4 | x4 | x4 | x4 | x4 | x4 | x4 | x4 | x4 | x4 | x4 | x4 | x4 | %17
 x4 | z [^CE=G]z[=CDF] |1 x4 :|2 x4 |: x4 | x4 | x4 | x4 | x4 | x4 | x4 | x4 | x4 | x4 | x4 | x4 | %33
 x4 | x4 | x4 |1 x4 :|2 x4 || x4 | x4 | x4 | x4 | x4 | x4 | x4 | x4 | x4 | x4 | x4 | x4 | x4 | x4 | %52
 z [^CE=G]z[=CDF] | x4 ||[K:C] x4 | x4 | x4 | x4 || x4 | x4 | x4 | x4 | x4 | x4 | x4 | x4 | x4 | %67
 x4 | x4 | x4 | x4 | x4 | z3/2 [EG]/[EG][EG] | [EG] x3 |: x4 | x4 | x4 | x4 | z [C_E_A]z[CEA] | %79
 z [C_E_A]/[CEA]/ [CEA] z | x4 | x4 | x4 | x4 | x4 | x4 || x4 | x4 | x4 | x4 | x4 | x4 | x4 | x4 | %94
 x4 | x4 | x4 | x4 | x4 | x4 | z3/2 [EG]/[EG][EG] | [EG] x3 :| %102
V:4
 x4 | x4 | x4 | x4 |: G,2 F,2 | E,2 D,2 | ^C,2 x2 | x4 | D,2 E,2 | F,2 x2 | B,,2 _B,,2 | x4 | %12
 G,2 F,2 | E,2 D,2 | ^C,2 x2 | x4 | E,2 _E,2 | x4 | x4 |1 x4 :|2 x4 |: x4 | x4 | x4 | x4 | %25
 A,,2 G,,2 | F,,2 D,,2 | x4 | x4 | x4 | x4 | x4 | x4 | A,,2 G,,2 | F,,2 D,,2 | G,4- |1 G, x3 :|2 %37
 x4 || G,2 F,2 | E,2 D,2 | ^C,2 x2 | x4 | D,2 E,2 | F,2 x2 | B,,2 _B,,2 | x4 | G,2 F,2 | E,2 D,2 | %48
 ^C,2 x2 | x4 | E,2 _E,2 | x4 | x4 | x4 ||[K:C] x4 | x4 | G,/A,/^A,/B,/- B,/A,/B, | x4 || x4 | x4 | %60
 x4 | x4 | x4 | x4 | E,2 _E,2 | x4 | x4 | x4 | x4 | x4 | x4 | x4 | x4 | x4 |: x4 | x4 | x4 | x4 | %78
 x4 | x4 | x4 | x4 | x4 | x4 | x4 | x4 || x4 | x4 | x4 | x4 | x4 | x4 | x4 | x4 | x4 | x4 | x4 | %97
 x4 | x4 | x4 | x4 | x4 :| %102
V:5
 x4 | x4 | x4 | x4 |: x4 | x4 | x4 | x4 | x4 | x4 | x4 | x4 | x4 | x4 | x4 | x4 | x4 | x4 | x4 |1 %19
 x4 :|2 x4 |: x4 | x4 | x4 | x4 | x4 | x4 | x4 | x4 | x4 | x4 | x4 | x4 | x4 | x4 | x4- |1 x4 :|2 %37
 G, x3 || x4 | x4 | x4 | x4 | x4 | x4 | x4 | x4 | x4 | x4 | x4 | x4 | x4 | x4 | x4 | x4 || %54
[K:C] x4 | x4 | x4 | x4 || x4 | x4 | x4 | x4 | x4 | x4 | x4 | x4 | x4 | x4 | x4 | x4 | x4 | x4 | %72
 x4 | x4 |: x4 | x4 | x4 | x4 | x4 | x4 | x4 | x4 | x4 | x4 | x4 | x4 || x4 | x4 | x4 | x4 | x4 | %91
 x4 | x4 | x4 | x4 | x4 | x4 | x4 | x4 | x4 | x4 | x4 :| %102

